; G-Code generated by Simplify3D(R) Version 4.1.2
; Sep 10, 2021 at 10:20:15 PM
; Settings Summary
;   processName,Process1
;   applyToModels,sotvl_Spiral-Vase
;   profileName,Micro (modified)
;   profileVersion,2021-01-22 10:23:48
;   baseProfile,MakerGear M3-ID (modified)
;   printMaterial,PLA
;   printQuality,Medium
;   printExtruders,Left Extruder Only
;   extruderName,Right Extruder,Left Extruder
;   extruderToolheadNumber,1,0
;   extruderDiameter,0.35,0.4
;   extruderAutoWidth,0,1
;   extruderWidth,0.4,0.48
;   extrusionMultiplier,0.9,1.05
;   extruderUseRetract,1,0
;   extruderRetractionDistance,2,2.2
;   extruderExtraRestartDistance,-0.03,-0.07
;   extruderRetractionZLift,0,0
;   extruderRetractionSpeed,6000,6000
;   extruderUseCoasting,0,1
;   extruderCoastingDistance,0.2,0.13
;   extruderUseWipe,0,0
;   extruderWipeDistance,5,5
;   primaryExtruder,1
;   layerHeight,0.22
;   topSolidLayers,0
;   bottomSolidLayers,3
;   perimeterOutlines,1
;   printPerimetersInsideOut,1
;   startPointOption,3
;   startPointOriginX,9999
;   startPointOriginY,5555
;   sequentialIslands,0
;   spiralVaseMode,1
;   firstLayerHeightPercentage,90
;   firstLayerWidthPercentage,100
;   firstLayerUnderspeed,0.5
;   useRaft,0
;   raftExtruder,1
;   raftTopLayers,3
;   raftBaseLayers,2
;   raftOffset,3
;   raftSeparationDistance,0.14
;   raftTopInfill,100
;   aboveRaftSpeedMultiplier,0.3
;   useSkirt,1
;   skirtExtruder,1
;   skirtLayers,1
;   skirtOutlines,2
;   skirtOffset,5
;   usePrimePillar,0
;   primePillarExtruder,999
;   primePillarWidth,12
;   primePillarLocation,7
;   primePillarSpeedMultiplier,1
;   useOozeShield,0
;   oozeShieldExtruder,999
;   oozeShieldOffset,2
;   oozeShieldOutlines,1
;   oozeShieldSidewallShape,1
;   oozeShieldSidewallAngle,30
;   oozeShieldSpeedMultiplier,1
;   infillExtruder,1
;   internalInfillPattern,Rectilinear
;   externalInfillPattern,Rectilinear
;   infillPercentage,0
;   outlineOverlapPercentage,18
;   infillExtrusionWidthPercentage,120
;   minInfillLength,1
;   infillLayerInterval,1
;   internalInfillAngles,45,-45
;   overlapInternalInfillAngles,0
;   externalInfillAngles,45,-45
;   generateSupport,0
;   supportExtruder,1
;   supportInfillPercentage,40
;   supportExtraInflation,1.6
;   supportBaseLayers,0
;   denseSupportExtruder,1
;   denseSupportLayers,0
;   denseSupportInfillPercentage,40
;   supportLayerInterval,1
;   supportHorizontalPartOffset,0.35
;   supportUpperSeparationLayers,1
;   supportLowerSeparationLayers,1
;   supportType,0
;   supportGridSpacing,1
;   maxOverhangAngle,50
;   supportAngles,0
;   temperatureName,Left Extruder
;   temperatureNumber,0
;   temperatureSetpointCount,1
;   temperatureSetpointLayers,1
;   temperatureSetpointTemperatures,195
;   temperatureStabilizeAtStartup,1
;   temperatureHeatedBed,0
;   fanLayers,1,2
;   fanSpeeds,40,100
;   blipFanToFullPower,0
;   adjustSpeedForCooling,1
;   minSpeedLayerTime,15
;   minCoolingSpeedSlowdown,20
;   increaseFanForCooling,0
;   minFanLayerTime,45
;   maxCoolingFanSpeed,100
;   increaseFanForBridging,0
;   bridgingFanSpeed,100
;   use5D,1
;   relativeEdistances,0
;   allowEaxisZeroing,1
;   independentExtruderAxes,0
;   includeM10123,0
;   stickySupport,1
;   applyToolheadOffsets,0
;   gcodeXoffset,0
;   gcodeYoffset,0
;   gcodeZoffset,0
;   overrideMachineDefinition,1
;   machineTypeOverride,0
;   strokeXoverride,89
;   strokeYoverride,89
;   strokeZoverride,100
;   originOffsetXoverride,0
;   originOffsetYoverride,0
;   originOffsetZoverride,0
;   homeXdirOverride,-1
;   homeYdirOverride,-1
;   homeZdirOverride,-1
;   flipXoverride,1
;   flipYoverride,-1
;   flipZoverride,1
;   toolheadOffsets,0,0|31.1,0|0,0|0,0|0,0|0,0
;   overrideFirmwareConfiguration,1
;   firmwareTypeOverride,RepRap (Marlin/Repetier/Sprinter)
;   GPXconfigOverride,r2
;   baudRateOverride,115200
;   overridePrinterModels,1
;   printerModelsOverride,MakerGear_M2Single.stl
;   startingGcode,;M605 S0 ; set x-carriage mode to independent control,T0 ; Switch to left extruder,G28 ; home all axes,;G1 X210 Y40 Z0.1 F10000 ; go to wait position,G92 E0 ; reset extrusion distance,;G1 X195 F5000 ; scrape off any ooze from heating,;G1 Z7 ; move the bed down to avoid collision,;G1 X40 Y6 F10000 ; move toolhead to the unused front edge,;G1 Z0.20 F1000 ; move bed to prime start position,;G1 X160 E10 F1000 ; prime the nozzle,;G1 X170 Z0.05 F5000 ; quick wipe,;G1 Z7 Y20 ; move the tool away to start printing
;   layerChangeGcode,
;   retractionGcode,
;   toolChangeGcode,
;   endingGcode,;M104 S0 T1 ; turn off right extruder,M104 S0 T0 ; turn off left extruder,;M140 S0 ; turn off bed,G1 Z100 Y80 F1000 ; move the bed all the way down and to the front,;M605 S0 ; Set X carriage mode to independent control,M106 S0 ; turn off cooling fans,G28 X0 ; home both toolheads,M84 ; disable motors
;   exportFileFormat,gcode
;   celebration,0
;   celebrationSong,Star Wars
;   postProcessing,
;   defaultSpeed,2000
;   outlineUnderspeed,0.5
;   solidInfillUnderspeed,0.8
;   supportUnderspeed,0.8
;   rapidXYspeed,9000
;   rapidZspeed,1200
;   minBridgingArea,50
;   bridgingExtraInflation,0
;   bridgingExtrusionMultiplier,1
;   bridgingSpeedMultiplier,1
;   useFixedBridgingAngle,0
;   fixedBridgingAngle,0
;   applyBridgingToPerimeters,0
;   filamentDiameters,1.75|1.75|1.75|1.75|1.75|1.75
;   filamentPricesPerKg,46|46|46|46|46|46
;   filamentDensities,1.25|1.25|1.25|1.25|1.25|1.25
;   useMinPrintHeight,0
;   minPrintHeight,92
;   useMaxPrintHeight,0
;   maxPrintHeight,92
;   useDiaphragm,0
;   diaphragmLayerInterval,20
;   robustSlicing,1
;   mergeAllIntoSolid,0
;   onlyRetractWhenCrossingOutline,1
;   retractBetweenLayers,1
;   useRetractionMinTravel,0
;   retractionMinTravel,3
;   retractWhileWiping,0
;   onlyWipeOutlines,1
;   avoidCrossingOutline,0
;   maxMovementDetourFactor,3
;   toolChangeRetractionDistance,12
;   toolChangeExtraRestartDistance,-0.5
;   toolChangeRetractionSpeed,600
;   externalThinWallType,0
;   internalThinWallType,2
;   thinWallAllowedOverlapPercentage,10
;   singleExtrusionMinLength,0
;   singleExtrusionMinPrintingWidthPercentage,50
;   singleExtrusionMaxPrintingWidthPercentage,200
;   singleExtrusionEndpointExtension,0.2
;   horizontalSizeCompensation,0
G90
M82
M106 S102
M104 S195 T0
M109 S195 T0
;M605 S0 ; set x-carriage mode to independent control
T0 ; Switch to left extruder
G28 ; home all axes
G29 ; Mesh testing
;G1 X210 Y40 Z0.1 F10000 ; go to wait position
G92 E0 ; reset extrusion distance
;G1 X195 F5000 ; scrape off any ooze from heating
;G1 Z7 ; move the bed down to avoid collision
;G1 X40 Y6 F10000 ; move toolhead to the unused front edge
;G1 Z0.20 F1000 ; move bed to prime start position
;G1 X160 E10 F1000 ; prime the nozzle
;G1 X170 Z0.05 F5000 ; quick wipe
;G1 Z7 Y20 ; move the tool away to start printing
; process Process1
; layer 1, Z = 0.198
T0
; feature skirt
; tool H0.198 W0.480
G1 Z0.198 F1200
G1 X67.828 Y55.604 F9000
G92 E0.0000
G1 X66.128 Y56.294 E0.0761 F1000
G1 X66.018 Y56.472 E0.0848
G1 X65.939 Y56.592 E0.0908
G1 X65.815 Y56.773 E0.0999
G1 X65.815 Y58.667 E0.1784
G1 X59.727 Y64.767 E0.5360
G1 X57.818 Y64.777 E0.6152
G1 X57.591 Y64.933 E0.6266
G1 X57.470 Y65.012 E0.6326
G1 X57.323 Y65.103 E0.6398
G1 X56.650 Y66.777 E0.7147
G1 X48.546 Y69.961 E1.0759
G1 X46.890 Y69.290 E1.1500
G1 X46.516 Y69.369 E1.1659
G1 X46.386 Y69.394 E1.1714
G1 X46.109 Y69.439 E1.1830
G1 X44.921 Y70.644 E1.2532
G1 X36.143 Y70.663 E1.6174
G1 X34.942 Y69.454 E1.6881
G1 X34.625 Y69.403 E1.7014
G1 X34.496 Y69.379 E1.7069
G1 X34.156 Y69.308 E1.7213
G1 X32.520 Y69.979 E1.7946
G1 X24.390 Y66.847 E2.1561
G1 X23.703 Y65.160 E2.2317
G1 X23.524 Y65.051 E2.2404
G1 X23.401 Y64.971 E2.2465
G1 X23.207 Y64.838 E2.2562
G1 X21.307 Y64.835 E2.3351
G1 X15.203 Y58.763 E2.6923
G1 X15.195 Y56.841 E2.7720
G1 X15.043 Y56.620 E2.7831
G1 X14.963 Y56.498 E2.7892
G1 X14.877 Y56.358 E2.7960
G1 X13.195 Y55.680 E2.8713
G1 X10.022 Y47.568 E3.2326
G1 X10.699 Y45.899 E3.3074
G1 X10.621 Y45.529 E3.3231
G1 X10.597 Y45.399 E3.3285
G1 X10.555 Y45.140 E3.3394
G1 X9.340 Y43.944 E3.4101
G1 X9.335 Y35.172 E3.7741
G1 X10.560 Y33.952 E3.8458
G1 X10.612 Y33.638 E3.8590
G1 X10.637 Y33.507 E3.8646
G1 X10.704 Y33.196 E3.8778
G1 X10.028 Y31.549 E3.9516
G1 X13.216 Y23.443 E4.3130
G1 X14.915 Y22.754 E4.3891
G1 X15.029 Y22.571 E4.3980
G1 X15.107 Y22.451 E4.4040
G1 X15.235 Y22.266 E4.4133
G1 X15.238 Y20.375 E4.4917
G1 X21.330 Y14.256 E4.8500
G1 X23.244 Y14.251 E4.9294
G1 X23.454 Y14.106 E4.9400
G1 X23.573 Y14.028 E4.9459
G1 X23.713 Y13.941 E4.9527
G1 X24.393 Y12.245 E5.0285
G1 X32.480 Y9.009 E5.3899
G1 X34.170 Y9.694 E5.4656
G1 X34.496 Y9.623 E5.4794
G1 X34.628 Y9.598 E5.4850
G1 X34.868 Y9.557 E5.4951
G1 X36.093 Y8.312 E5.5676
G1 X44.853 Y8.296 E5.9310
G1 X46.097 Y9.548 E6.0042
G1 X46.383 Y9.596 E6.0163
G1 X46.515 Y9.621 E6.0218
G1 X46.797 Y9.682 E6.0338
G1 X48.465 Y8.996 E6.1086
G1 X56.571 Y12.199 E6.4702
G1 X57.266 Y13.914 E6.5470
G1 X57.441 Y14.022 E6.5555
G1 X57.560 Y14.100 E6.5614
G1 X57.735 Y14.221 E6.5703
G1 X59.640 Y14.220 E6.6493
G1 X65.762 Y20.321 E7.0078
G1 X65.769 Y22.242 E7.0875
G1 X65.917 Y22.455 E7.0983
G1 X65.995 Y22.574 E7.1042
G1 X66.083 Y22.716 E7.1111
G1 X67.780 Y23.397 E7.1870
G1 X71.001 Y31.494 E7.5485
G1 X70.319 Y33.170 E7.6236
G1 X70.392 Y33.506 E7.6379
G1 X70.417 Y33.638 E7.6434
G1 X70.460 Y33.896 E7.6543
G1 X71.692 Y35.114 E7.7262
G1 X71.707 Y43.880 E8.0898
G1 X70.470 Y45.105 E8.1621
G1 X70.421 Y45.398 E8.1744
G1 X70.396 Y45.529 E8.1799
G1 X70.331 Y45.836 E8.1930
G1 X71.010 Y47.498 E8.2675
G1 X67.828 Y55.604 E8.6287
G1 X67.456 Y55.236 F9000
G92 E0.0000
G1 X65.802 Y55.908 E0.0741 F1000
G1 X65.613 Y56.215 E0.0890
G1 X65.541 Y56.325 E0.0945
G1 X65.335 Y56.624 E0.1096
G1 X65.335 Y58.468 E0.1861
G1 X59.527 Y64.288 E0.5272
G1 X57.667 Y64.298 E0.6044
G1 X57.324 Y64.535 E0.6217
G1 X57.213 Y64.607 E0.6271
G1 X56.937 Y64.777 E0.6406
G1 X56.282 Y66.406 E0.7134
G1 X48.549 Y69.444 E1.0582
G1 X46.934 Y68.790 E1.1304
G1 X46.422 Y68.899 E1.1522
G1 X46.303 Y68.921 E1.1572
G1 X45.877 Y68.991 E1.1751
G1 X44.720 Y70.164 E1.2435
G1 X36.343 Y70.183 E1.5910
G1 X35.173 Y69.005 E1.6599
G1 X34.707 Y68.930 E1.6794
G1 X34.589 Y68.908 E1.6844
G1 X34.111 Y68.808 E1.7047
G1 X32.515 Y69.462 E1.7763
G1 X24.756 Y66.474 E2.1212
G1 X24.088 Y64.833 E2.1947
G1 X23.780 Y64.644 E2.2097
G1 X23.667 Y64.572 E2.2153
G1 X23.356 Y64.358 E2.2309
G1 X21.505 Y64.355 E2.3077
G1 X15.682 Y58.563 E2.6485
G1 X15.674 Y56.691 E2.7261
G1 X15.442 Y56.353 E2.7432
G1 X15.369 Y56.242 E2.7487
G1 X15.203 Y55.972 E2.7618
G1 X13.567 Y55.312 E2.8350
G1 X10.539 Y47.571 E3.1799
G1 X11.199 Y45.943 E3.2528
G1 X11.092 Y45.435 E3.2743
G1 X11.070 Y45.316 E3.2793
G1 X11.003 Y44.908 E3.2965
G1 X9.820 Y43.743 E3.3654
G1 X9.815 Y35.371 E3.7127
G1 X11.008 Y34.183 E3.7826
G1 X11.085 Y33.722 E3.8020
G1 X11.108 Y33.602 E3.8071
G1 X11.204 Y33.151 E3.8262
G1 X10.545 Y31.545 E3.8982
G1 X13.587 Y23.810 E4.2430
G1 X15.240 Y23.140 E4.3170
G1 X15.434 Y22.829 E4.3323
G1 X15.506 Y22.719 E4.3377
G1 X15.715 Y22.416 E4.3530
G1 X15.717 Y20.574 E4.4294
G1 X21.530 Y14.736 E4.7712
G1 X23.395 Y14.731 E4.8486
G1 X23.722 Y14.504 E4.8651
G1 X23.831 Y14.432 E4.8705
G1 X24.100 Y14.265 E4.8836
G1 X24.762 Y12.614 E4.9575
G1 X32.479 Y9.526 E5.3023
G1 X34.127 Y10.194 E5.3761
G1 X34.593 Y10.093 E5.3958
G1 X34.713 Y10.070 E5.4009
G1 X35.101 Y10.005 E5.4172
G1 X36.295 Y8.792 E5.4878
G1 X44.654 Y8.776 E5.8346
G1 X45.866 Y9.996 E5.9060
G1 X46.298 Y10.068 E5.9242
G1 X46.419 Y10.091 E5.9293
G1 X46.841 Y10.182 E5.9472
G1 X48.468 Y9.514 E6.0202
G1 X56.203 Y12.570 E6.3653
G1 X56.880 Y14.239 E6.4400
G1 X57.183 Y14.427 E6.4548
G1 X57.292 Y14.499 E6.4602
G1 X57.586 Y14.701 E6.4750
G1 X59.442 Y14.700 E6.5520
G1 X65.282 Y20.521 E6.8941
G1 X65.290 Y22.393 E6.9717
G1 X65.519 Y22.723 E6.9884
G1 X65.590 Y22.833 E6.9939
G1 X65.758 Y23.103 E7.0070
G1 X67.410 Y23.766 E7.0809
G1 X70.484 Y31.492 E7.4259
G1 X69.819 Y33.126 E7.4991
G1 X69.921 Y33.602 E7.5193
G1 X69.944 Y33.723 E7.5244
G1 X70.012 Y34.128 E7.5414
G1 X71.212 Y35.314 E7.6114
G1 X71.227 Y43.680 E7.9585
G1 X70.022 Y44.873 E8.0289
G1 X69.949 Y45.314 E8.0474
G1 X69.926 Y45.434 E8.0525
G1 X69.830 Y45.881 E8.0714
G1 X70.493 Y47.501 E8.1441
G1 X67.456 Y55.236 E8.4888
; feature outer perimeter
G1 X63.270 Y50.905 F9000
G92 E0.0000
G1 X62.511 Y50.562 E0.0346 F500
G1 X62.210 Y51.180 E0.0631
G1 X61.631 Y52.235 E0.1130
G1 X60.989 Y53.273 E0.1636
G1 X60.321 Y54.242 E0.2125
G1 X59.592 Y55.190 E0.2621
G1 X59.155 Y55.701 E0.2900
G1 X59.755 Y56.302 E0.3252
G1 X57.340 Y58.722 E0.4671
G1 X56.733 Y58.127 E0.5024
G1 X56.223 Y58.562 E0.5302
G1 X55.276 Y59.291 E0.5797
G1 X54.274 Y59.981 E0.6302
G1 X53.270 Y60.601 E0.6792
G1 X52.216 Y61.179 E0.7290
G1 X51.595 Y61.480 E0.7577
G1 X51.939 Y62.225 E0.7917
G1 X48.703 Y63.496 E0.9359
G1 X48.369 Y62.759 E0.9695
G1 X47.730 Y62.960 E0.9972
G1 X46.557 Y63.268 E1.0476
G1 X45.349 Y63.524 E1.0988
G1 X44.168 Y63.718 E1.1484
G1 X42.958 Y63.860 E1.1990
G1 X42.273 Y63.908 E1.2275
G1 X42.282 Y64.689 E1.2599
G1 X38.760 Y64.697 E1.4060
G1 X38.767 Y63.913 E1.4385
G1 X38.082 Y63.867 E1.4670
G1 X36.871 Y63.729 E1.5176
G1 X35.647 Y63.531 E1.5690
G1 X34.477 Y63.286 E1.6187
G1 X33.300 Y62.981 E1.6691
G1 X32.661 Y62.782 E1.6969
G1 X32.328 Y63.518 E1.7303
G1 X29.079 Y62.266 E1.8748
G1 X29.422 Y61.518 E1.9090
G1 X28.800 Y61.219 E1.9376
G1 X27.743 Y60.645 E1.9875
G1 X26.703 Y60.009 E2.0381
G1 X25.733 Y59.344 E2.0869
G1 X24.784 Y58.619 E2.1364
G1 X24.274 Y58.185 E2.1642
G1 X23.671 Y58.781 E2.1993
G1 X21.252 Y56.374 E2.3410
G1 X21.850 Y55.768 E2.3763
G1 X21.415 Y55.259 E2.4041
G1 X20.688 Y54.312 E2.4536
G1 X19.999 Y53.310 E2.5041
G1 X19.382 Y52.305 E2.5530
G1 X18.805 Y51.250 E2.6029
G1 X18.505 Y50.628 E2.6315
G1 X17.754 Y50.973 E2.6658
G1 X16.486 Y47.731 E2.8103
G1 X17.230 Y47.392 E2.8442
G1 X17.030 Y46.753 E2.8720
G1 X16.723 Y45.578 E2.9224
G1 X16.468 Y44.368 E2.9737
G1 X16.275 Y43.187 E3.0233
G1 X16.134 Y41.977 E3.0739
G1 X16.088 Y41.292 E3.1024
G1 X15.298 Y41.304 E3.1351
G1 X15.297 Y37.788 E3.2810
G1 X16.088 Y37.792 E3.3138
G1 X16.137 Y37.110 E3.3422
G1 X16.278 Y35.902 E3.3927
G1 X16.480 Y34.684 E3.4439
G1 X16.730 Y33.518 E3.4934
G1 X17.040 Y32.347 E3.5436
G1 X17.243 Y31.708 E3.5714
G1 X16.500 Y31.378 E3.6052
G1 X17.771 Y28.144 E3.7493
G1 X18.527 Y28.487 E3.7838
G1 X18.829 Y27.869 E3.8123
G1 X19.410 Y26.815 E3.8622
G1 X20.053 Y25.777 E3.9129
G1 X20.724 Y24.807 E3.9618
G1 X21.455 Y23.858 E4.0115
G1 X21.893 Y23.347 E4.0394
G1 X21.293 Y22.741 E4.0748
G1 X23.714 Y20.309 E4.2172
G1 X24.322 Y20.914 E4.2528
G1 X24.833 Y20.476 E4.2807
G1 X25.782 Y19.744 E4.3304
G1 X26.785 Y19.049 E4.3811
G1 X27.789 Y18.425 E4.4301
G1 X28.842 Y17.841 E4.4801
G1 X29.460 Y17.538 E4.5086
G1 X29.113 Y16.776 E4.5434
G1 X32.341 Y15.484 E4.6876
G1 X32.679 Y16.242 E4.7221
G1 X33.318 Y16.037 E4.7499
G1 X34.486 Y15.724 E4.8001
G1 X35.689 Y15.463 E4.8511
G1 X36.863 Y15.265 E4.9005
G1 X38.066 Y15.121 E4.9508
G1 X38.749 Y15.073 E4.9792
G1 X38.737 Y14.267 E5.0126
G1 X42.236 Y14.261 E5.1578
G1 X42.229 Y15.069 E5.1913
G1 X42.910 Y15.117 E5.2196
G1 X44.114 Y15.259 E5.2699
G1 X45.328 Y15.462 E5.3210
G1 X46.491 Y15.713 E5.3704
G1 X47.660 Y16.025 E5.4205
G1 X48.300 Y16.229 E5.4484
G1 X48.633 Y15.471 E5.4828
G1 X51.868 Y16.750 E5.6271
G1 X51.522 Y17.518 E5.6621
G1 X52.140 Y17.820 E5.6906
G1 X53.195 Y18.402 E5.7406
G1 X54.235 Y19.047 E5.7914
G1 X55.206 Y19.718 E5.8404
G1 X56.157 Y20.450 E5.8902
G1 X56.669 Y20.889 E5.9181
G1 X57.278 Y20.281 E5.9538
G1 X59.712 Y22.707 E6.0964
G1 X59.107 Y23.320 E6.1322
G1 X59.544 Y23.831 E6.1601
G1 X60.277 Y24.780 E6.2098
G1 X60.973 Y25.784 E6.2605
G1 X61.596 Y26.789 E6.3096
G1 X62.180 Y27.843 E6.3595
G1 X62.482 Y28.462 E6.3881
G1 X63.242 Y28.114 E6.4228
G1 X64.528 Y31.344 E6.5670
G1 X63.775 Y31.680 E6.6012
G1 X63.978 Y32.319 E6.6290
G1 X64.291 Y33.488 E6.6792
G1 X64.550 Y34.692 E6.7303
G1 X64.747 Y35.868 E6.7798
G1 X64.890 Y37.074 E6.8302
G1 X64.938 Y37.756 E6.8586
G1 X65.736 Y37.748 E6.8917
G1 X65.742 Y41.255 E7.0372
G1 X64.943 Y41.246 E7.0704
G1 X64.895 Y41.930 E7.0988
G1 X64.755 Y43.136 E7.1492
G1 X64.553 Y44.354 E7.2004
G1 X64.304 Y45.520 E7.2499
